icons/copilot-96.svg

<svg width="96" height="96" viewBox="0 0 96 96" fill="none" xmlns="http://www.w3.org/2000/svg">
<g clip-path="url(#clip0_71_2335)">
<path d="M38 54C40.2091 54 42 55.7909 42 58V66C42 68.2091 40.2091 70 38 70C35.7908 70 34 68.2091 34 66V58C34 55.7909 35.7908 54 38 54Z" fill="black"/>
<path d="M62 58C62 55.7909 60.2091 54 58 54C55.7908 54 54 55.7909 54 58V66C54 68.2091 55.7908 70 58 70C60.2091 70 62 68.2091 62 66V58Z" fill="black"/>
<path fill-rule="evenodd" clip-rule="evenodd" d="M25.0127 15.0244C31.0079 10.628 39.1449 8 48 8C56.8551 8 64.9921 10.628 70.9873 15.0244C74.6278 17.6942 77.54 21.074 79.2654 24.9435C80.8805 27.6876 81.3795 30.8839 81.2331 34.3408L85.1306 43.3667L85.4862 43.4378C88.2266 43.9859 90.6556 45.5565 92.28 47.8306L94.6961 51.2132C95.5442 52.4004 96 53.8229 96 55.2819L96 65C96 67.116 94.7622 68.9465 93.7422 70.1706C92.6203 71.5168 91.1953 72.7856 89.8741 73.8426C88.5353 74.9136 87.2097 75.8407 86.2266 76.4962C85.7326 76.8255 85.3191 77.0901 85.0262 77.2743C84.8796 77.3664 84.7628 77.4387 84.6808 77.489L84.6199 77.5262L84.5843 77.5478L84.5821 77.5492L84.5583 77.5643C84.5205 77.5882 84.4678 77.6213 84.4005 77.6629C84.2659 77.7463 84.0728 77.864 83.8241 78.0113C83.3268 78.3057 82.6063 78.7183 81.6852 79.2096C79.8444 80.1913 77.1945 81.4913 73.9171 82.7892C67.3812 85.3777 58.2452 88 48 88C37.7548 88 28.6187 85.3777 22.0828 82.7892C18.8055 81.4913 16.1556 80.1913 14.3148 79.2096C13.3937 78.7183 12.6732 78.3057 12.1759 78.0113C11.9272 77.864 11.7341 77.7463 11.5995 77.6629C11.5322 77.6213 11.4795 77.5882 11.4417 77.5643L11.4179 77.5492L11.4157 77.5478L11.3782 77.5251L11.3192 77.489C11.2372 77.4387 11.1204 77.3664 10.9738 77.2743C10.6808 77.0901 10.2674 76.8255 9.77339 76.4962C8.79026 75.8407 7.46467 74.9136 6.1259 73.8426C4.80468 72.7856 3.37965 71.5168 2.25781 70.1706C1.23778 68.9465 -2.36031e-05 67.116 -1.14438e-05 65L-3.05175e-05 55.2819C-3.7193e-05 53.8229 0.455829 52.4004 1.30384 51.2132L3.72 47.8306C5.34436 45.5565 7.7734 43.9859 10.5138 43.4378L10.8693 43.3667L14.7668 34.3409C14.6205 30.8839 15.1195 27.6874 16.7347 24.9432C18.4602 21.0739 21.3723 17.6941 25.0127 15.0244ZM16 46.6201L16.9824 44.3449C17.5709 45.4732 18.316 46.5076 19.264 47.4104C22.431 50.4261 27.1005 51.2899 33.1781 50.7582C38.8356 50.2632 42.7997 47.958 45.2755 44.3008C45.3481 44.1937 45.4191 44.0857 45.4886 43.977C46.3255 43.9924 47.1635 44 48 44C48.8365 44 49.6744 43.9924 50.5114 43.977C50.5809 44.0857 50.6519 44.1937 50.7244 44.3008C53.2003 47.958 57.1644 50.2632 62.8218 50.7582C68.8995 51.2899 73.569 50.4261 76.7359 47.4104C77.684 46.5076 78.429 45.4732 79.0175 44.3449L80 46.6201V73.2914C79.6744 73.4751 79.2939 73.6849 78.8617 73.9154C77.1869 74.8087 74.743 76.0087 71.7078 77.2108C65.6187 79.6223 57.2548 82 48 82C38.7452 82 30.3812 79.6223 24.2921 77.2108C21.257 76.0087 18.8131 74.8087 17.1383 73.9154C16.7061 73.6849 16.3256 73.4751 16 73.2914V46.6201ZM40.307 40.9372C39.6131 41.9622 38.6719 42.8771 37.3253 43.5651C36.1269 44.1775 34.6073 44.6102 32.6552 44.781C32.313 44.8109 31.9825 44.8352 31.6632 44.8542C26.8739 45.1383 24.612 44.2178 23.4016 43.0652C23.3224 42.9898 23.2449 42.9109 23.1693 42.8284C22.64 42.2512 22.1994 41.4988 21.8414 40.5135C21.3642 39.2004 21.0335 37.4736 20.8343 35.1967C20.4891 31.2512 21.1228 28.8131 22.5107 27.1209C23.9538 25.3614 26.6879 23.8184 31.8786 22.7928C36.9924 21.7824 39.4022 22.6347 40.5884 23.7743C41.8709 25.0065 42.7397 27.5054 42.5536 32.1114C42.4034 35.8299 41.7345 38.8285 40.307 40.9372ZM55.6929 40.9372C56.3868 41.9622 57.328 42.8771 58.6746 43.5651C59.8731 44.1775 61.3926 44.6102 63.3447 44.781C68.8198 45.26 71.3072 44.2947 72.5983 43.0652C73.2324 42.4614 73.7493 41.6395 74.1585 40.5136C74.6357 39.2004 74.9664 37.4736 75.1656 35.1967C75.5108 31.2512 74.8772 28.8131 73.4892 27.1209C72.0462 25.3614 69.312 23.8184 64.1213 22.7928C59.0075 21.7824 56.5977 22.6347 55.4115 23.7743C54.129 25.0065 53.2603 27.5054 53.4463 32.1114C53.5965 35.8299 54.2654 38.8285 55.6929 40.9372ZM46.4235 34.9403C47.4586 34.6815 48.5414 34.6815 49.5765 34.9403L49.6362 34.9552C50.4399 35.1561 51.2543 34.6675 51.4552 33.8638C51.6561 33.0601 51.1675 32.2457 50.3638 32.0448L50.3041 32.0299C48.7913 31.6517 47.2087 31.6517 45.6959 32.0299L45.6362 32.0448C44.8325 32.2457 44.3439 33.0601 44.5448 33.8638C44.7457 34.6675 45.5601 35.1561 46.3638 34.9552L46.4235 34.9403Z" fill="black"/>
</g>
<defs>
<clipPath id="clip0_71_2335">
<rect width="96" height="96" fill="white"/>
</clipPath>
</defs>
</svg>

<svg xmlns="http://www.w3.org/2000/svg" width="96" height="96" viewBox="0 0 96 96"><path d="M38 54a4 4 0 014 4v8a4 4 0 01-8 0v-8a4 4 0 014-4zm24 4a4 4 0 00-8 0v8a4 4 0 108 0v-8z"/><path fill-rule="evenodd" d="M25.013 15.024C31.008 10.628 39.145 8 48 8c8.855 0 16.992 2.628 22.987 7.024 3.64 2.67 6.553 6.05 8.278 9.92 1.615 2.744 2.114 5.94 1.968 9.397l3.898 9.026.355.07a11 11 0 016.794 4.394l2.416 3.382A7 7 0 0196 55.282V65c0 2.116-1.238 3.947-2.258 5.17-1.122 1.347-2.547 2.616-3.868 3.673a53.119 53.119 0 01-3.647 2.653 54.197 54.197 0 01-1.546.993l-.061.037-.036.022-.002.001-.024.015-.158.099c-.134.083-.327.201-.576.348a55.52 55.52 0 01-2.139 1.199 76.475 76.475 0 01-7.768 3.58C67.381 85.377 58.245 88 48 88c-10.245 0-19.381-2.622-25.917-5.21a76.482 76.482 0 01-7.768-3.58 55.52 55.52 0 01-2.14-1.199 34.133 34.133 0 01-.733-.447l-.024-.015-.002-.001-.038-.023-.059-.036-.345-.215a53.98 53.98 0 01-1.2-.778 53.104 53.104 0 01-3.648-2.653c-1.321-1.057-2.746-2.326-3.868-3.672C1.238 68.946 0 67.116 0 65v-9.718a7 7 0 011.304-4.069l2.416-3.382a11 11 0 016.794-4.393l.355-.071 3.898-9.026c-.146-3.457.353-6.654 1.968-9.398 1.725-3.87 4.637-7.249 8.278-9.919zM16 46.62l.982-2.275a11.586 11.586 0 002.282 3.065c3.167 3.016 7.837 3.88 13.914 3.348 5.658-.495 9.622-2.8 12.098-6.457.072-.107.143-.215.213-.324a136.57 136.57 0 005.022 0c.07.109.14.217.213.324 2.476 3.657 6.44 5.962 12.098 6.457 6.078.532 10.747-.332 13.914-3.348a11.583 11.583 0 002.281-3.065L80 46.62v26.671c-.326.184-.706.394-1.138.624a70.475 70.475 0 01-7.154 3.296C65.618 79.622 57.255 82 48 82c-9.255 0-17.619-2.378-23.708-4.79a70.482 70.482 0 01-7.154-3.295c-.432-.23-.812-.44-1.138-.624v-26.67zm24.307-5.683a7.803 7.803 0 01-2.982 2.628c-1.198.613-2.718 1.045-4.67 1.216-.342.03-.672.054-.992.073-4.79.284-7.051-.636-8.261-1.789a4.865 4.865 0 01-.233-.237c-.529-.577-.97-1.33-1.328-2.315-.477-1.313-.808-3.04-1.007-5.316-.345-3.946.289-6.384 1.677-8.076 1.443-1.76 4.177-3.303 9.368-4.328 5.113-1.01 7.523-.158 8.71.981 1.282 1.232 2.15 3.731 1.965 8.337-.15 3.719-.82 6.718-2.247 8.826zm15.386 0a7.803 7.803 0 002.982 2.628c1.198.613 2.718 1.045 4.67 1.216 5.475.479 7.962-.486 9.253-1.716.634-.604 1.151-1.425 1.56-2.551.478-1.314.808-3.04 1.008-5.317.345-3.946-.289-6.384-1.677-8.076-1.443-1.76-4.177-3.303-9.368-4.328-5.113-1.01-7.523-.158-8.71.981-1.282 1.232-2.15 3.731-1.965 8.337.15 3.719.82 6.718 2.247 8.826zm-9.27-5.997a6.5 6.5 0 013.154 0l.06.015a1.5 1.5 0 10.727-2.91l-.06-.015a9.5 9.5 0 00-4.608 0l-.06.015a1.5 1.5 0 10.728 2.91l.06-.015z"/></svg>
